assets/1. 1-F/Cyclone/Color/Cyclone-color.svg

<svg width="100%" height="100%" viewBox="0 0 32 32" fill="none" xmlns="http://www.w3.org/2000/svg">
<g filter="url(#filter0_ii_18_15367)">
<path fill-rule="evenodd" clip-rule="evenodd" d="M11.0796 2.73559C11.7779 3.59138 11.6503 4.85127 10.7945 5.54961C7.86908 7.9368 6 11.5672 6 15.6401C6 21.1655 10.4746 25.6401 16 25.6401C21.5254 25.6401 26 21.1655 26 15.6401C26 11.7746 22.8654 8.64006 19 8.64006C15.1346 8.64006 12 11.7746 12 15.6401C12 17.8555 13.7846 19.6401 16 19.6401C18.2154 19.6401 20 17.8555 20 15.6401C20 15.0846 19.5554 14.6401 19 14.6401C18.4446 14.6401 18 15.0846 18 15.6401C18 16.7446 17.1046 17.6401 16 17.6401C14.8954 17.6401 14 16.7446 14 15.6401C14 12.8755 16.2354 10.6401 19 10.6401C21.7646 10.6401 24 12.8755 24 15.6401C24 20.0646 20.4246 23.6401 16 23.6401C11.5754 23.6401 8 20.0646 8 15.6401C8 9.56549 12.9254 4.64006 19 4.64006C25.0746 4.64006 30 9.56549 30 15.6401C30 23.3746 23.7346 29.6401 16 29.6401C8.26543 29.6401 2 23.3746 2 15.6401C2 10.3129 4.45092 5.56332 8.26553 2.45051C9.12132 1.75216 10.3812 1.8798 11.0796 2.73559Z" fill="url(#paint0_radial_18_15367)"/>
<path fill-rule="evenodd" clip-rule="evenodd" d="M11.0796 2.73559C11.7779 3.59138 11.6503 4.85127 10.7945 5.54961C7.86908 7.9368 6 11.5672 6 15.6401C6 21.1655 10.4746 25.6401 16 25.6401C21.5254 25.6401 26 21.1655 26 15.6401C26 11.7746 22.8654 8.64006 19 8.64006C15.1346 8.64006 12 11.7746 12 15.6401C12 17.8555 13.7846 19.6401 16 19.6401C18.2154 19.6401 20 17.8555 20 15.6401C20 15.0846 19.5554 14.6401 19 14.6401C18.4446 14.6401 18 15.0846 18 15.6401C18 16.7446 17.1046 17.6401 16 17.6401C14.8954 17.6401 14 16.7446 14 15.6401C14 12.8755 16.2354 10.6401 19 10.6401C21.7646 10.6401 24 12.8755 24 15.6401C24 20.0646 20.4246 23.6401 16 23.6401C11.5754 23.6401 8 20.0646 8 15.6401C8 9.56549 12.9254 4.64006 19 4.64006C25.0746 4.64006 30 9.56549 30 15.6401C30 23.3746 23.7346 29.6401 16 29.6401C8.26543 29.6401 2 23.3746 2 15.6401C2 10.3129 4.45092 5.56332 8.26553 2.45051C9.12132 1.75216 10.3812 1.8798 11.0796 2.73559Z" fill="url(#paint1_radial_18_15367)"/>
</g>
<g filter="url(#filter1_f_18_15367)">
<path d="M9.91831 4C6.54831 6.75 4.38831 10.94 4.38831 15.64C4.38831 22.27 9.75831 27.64 16.3883 27.64C23.0183 27.64 28.3883 22.27 28.3883 15.64C28.3883 10.67 24.3583 6.64 19.3883 6.64C14.4183 6.64 10.3883 10.67 10.3883 15.64C10.3883 18.96 13.0683 21.64 16.3883 21.64C19.7083 21.64 22.3883 18.96 22.3883 15.64C22.3883 13.98 21.0483 12.64 19.3883 12.64C17.7283 12.64 16.3883 13.98 16.3883 15.64" stroke="#546AFB" stroke-miterlimit="10" stroke-linecap="round" stroke-linejoin="round"/>
</g>
<defs>
<filter id="filter0_ii_18_15367" x="1.5" y="1.5" width="29" height="28.1401" filterUnits="userSpaceOnUse" color-interpolation-filters="sRGB">
<feFlood flood-opacity="0" result="BackgroundImageFix"/>
<feBlend mode="normal" in="SourceGraphic" in2="BackgroundImageFix" result="shape"/>
<feColorMatrix in="SourceAlpha" type="matrix" values="0 0 0 0 0 0 0 0 0 0 0 0 0 0 0 0 0 0 127 0" result="hardAlpha"/>
<feOffset dx="0.5" dy="-0.5"/>
<feGaussianBlur stdDeviation="0.5"/>
<feComposite in2="hardAlpha" operator="arithmetic" k2="-1" k3="1"/>
<feColorMatrix type="matrix" values="0 0 0 0 0.305882 0 0 0 0 0.278431 0 0 0 0 0.866667 0 0 0 1 0"/>
<feBlend mode="normal" in2="shape" result="effect1_innerShadow_18_15367"/>
<feColorMatrix in="SourceAlpha" type="matrix" values="0 0 0 0 0 0 0 0 0 0 0 0 0 0 0 0 0 0 127 0" result="hardAlpha"/>
<feOffset dx="-0.5" dy="-0.5"/>
<feGaussianBlur stdDeviation="0.5"/>
<feComposite in2="hardAlpha" operator="arithmetic" k2="-1" k3="1"/>
<feColorMatrix type="matrix" values="0 0 0 0 0.305882 0 0 0 0 0.278431 0 0 0 0 0.866667 0 0 0 1 0"/>
<feBlend mode="normal" in2="effect1_innerShadow_18_15367" result="effect2_innerShadow_18_15367"/>
</filter>
<filter id="filter1_f_18_15367" x="2.88831" y="2.5" width="27" height="26.64" filterUnits="userSpaceOnUse" color-interpolation-filters="sRGB">
<feFlood flood-opacity="0" result="BackgroundImageFix"/>
<feBlend mode="normal" in="SourceGraphic" in2="BackgroundImageFix" result="shape"/>
<feGaussianBlur stdDeviation="0.5" result="effect1_foregroundBlur_18_15367"/>
</filter>
<radialGradient id="paint0_radial_18_15367" cx="0" cy="0" r="1" gradientUnits="userSpaceOnUse" gradientTransform="translate(8.41274 23.3385) rotate(-46.2431) scale(23.8986 24.3254)">
<stop offset="0.443337" stop-color="#2F39FF"/>
<stop offset="1" stop-color="#4E65F2"/>
</radialGradient>
<radialGradient id="paint1_radial_18_15367" cx="0" cy="0" r="1" gradientUnits="userSpaceOnUse" gradientTransform="translate(20.4375 15.82) rotate(-160.06) scale(19.0814 19.1064)">
<stop offset="0.855189" stop-color="#4853D0" stop-opacity="0"/>
<stop offset="1" stop-color="#4853D0"/>
</radialGradient>
</defs>
</svg>

<svg width="100%" height="100%" viewBox="0 0 32 32" xmlns="http://www.w3.org/2000/svg"><g fill-rule="evenodd" clip-rule="evenodd" filter="url(#a)"><path fill="url(#b)" d="M11.08 2.736a2 2 0 0 1-.286 2.814A12.99 12.99 0 0 0 6 15.64c0 5.526 4.475 10 10 10s10-4.474 10-10a7 7 0 0 0-14 0c0 2.215 1.785 4 4 4s4-1.785 4-4c0-.555-.445-1-1-1s-1 .445-1 1a2 2 0 0 1-4 0c0-2.764 2.235-5 5-5s5 2.236 5 5c0 4.425-3.575 8-8 8s-8-3.575-8-8c0-6.075 4.925-11 11-11s11 4.925 11 11c0 7.735-6.265 14-14 14s-14-6.265-14-14C2 10.313 4.45 5.563 8.266 2.45a2 2 0 0 1 2.814.286"/><path fill="url(#c)" d="M11.08 2.736a2 2 0 0 1-.286 2.814A12.99 12.99 0 0 0 6 15.64c0 5.526 4.475 10 10 10s10-4.474 10-10a7 7 0 0 0-14 0c0 2.215 1.785 4 4 4s4-1.785 4-4c0-.555-.445-1-1-1s-1 .445-1 1a2 2 0 0 1-4 0c0-2.764 2.235-5 5-5s5 2.236 5 5c0 4.425-3.575 8-8 8s-8-3.575-8-8c0-6.075 4.925-11 11-11s11 4.925 11 11c0 7.735-6.265 14-14 14s-14-6.265-14-14C2 10.313 4.45 5.563 8.266 2.45a2 2 0 0 1 2.814.286"/></g><g filter="url(#d)"><path stroke="#546AFB" stroke-linecap="round" stroke-linejoin="round" stroke-miterlimit="10" d="M9.918 4a14.99 14.99 0 0 0-5.53 11.64c0 6.63 5.37 12 12 12s12-5.37 12-12a9 9 0 0 0-18 0c0 3.32 2.68 6 6 6s6-2.68 6-6c0-1.66-1.34-3-3-3s-3 1.34-3 3"/></g><defs><radialGradient id="b" cx="0" cy="0" r="1" gradientTransform="matrix(16.52827 -17.2615 17.56977 16.82345 8.413 23.338)" gradientUnits="userSpaceOnUse"><stop offset=".443" stop-color="#2F39FF"/><stop offset="1" stop-color="#4E65F2"/></radialGradient><radialGradient id="c" cx="0" cy="0" r="1" gradientTransform="rotate(-160.06 11.61 6.114)scale(19.0814 19.1064)" gradientUnits="userSpaceOnUse"><stop offset=".855" stop-color="#4853D0" stop-opacity="0"/><stop offset="1" stop-color="#4853D0"/></radialGradient><filter id="a" width="29" height="28.14" x="1.5" y="1.5" color-interpolation-filters="sRGB" filterUnits="userSpaceOnUse"><feFlood flood-opacity="0" result="BackgroundImageFix"/><feBlend in="SourceGraphic" in2="BackgroundImageFix" result="shape"/><feColorMatrix in="SourceAlpha" result="hardAlpha" values="0 0 0 0 0 0 0 0 0 0 0 0 0 0 0 0 0 0 127 0"/><feOffset dx=".5" dy="-.5"/><feGaussianBlur stdDeviation=".5"/><feComposite in2="hardAlpha" k2="-1" k3="1" operator="arithmetic"/><feColorMatrix values="0 0 0 0 0.305882 0 0 0 0 0.278431 0 0 0 0 0.866667 0 0 0 1 0"/><feBlend in2="shape" result="effect1_innerShadow_18_15367"/><feColorMatrix in="SourceAlpha" result="hardAlpha" values="0 0 0 0 0 0 0 0 0 0 0 0 0 0 0 0 0 0 127 0"/><feOffset dx="-.5" dy="-.5"/><feGaussianBlur stdDeviation=".5"/><feComposite in2="hardAlpha" k2="-1" k3="1" operator="arithmetic"/><feColorMatrix values="0 0 0 0 0.305882 0 0 0 0 0.278431 0 0 0 0 0.866667 0 0 0 1 0"/><feBlend in2="effect1_innerShadow_18_15367" result="effect2_innerShadow_18_15367"/></filter><filter id="d" width="27" height="26.64" x="2.888" y="2.5" color-interpolation-filters="sRGB" filterUnits="userSpaceOnUse"><feFlood flood-opacity="0" result="BackgroundImageFix"/><feBlend in="SourceGraphic" in2="BackgroundImageFix" result="shape"/><feGaussianBlur result="effect1_foregroundBlur_18_15367" stdDeviation=".5"/></filter></defs></svg>
